common/svg/push-to-device-icon.svg

<svg fill="none" height="22" viewBox="0 0 20 22" width="20" xmlns="http://www.w3.org/2000/svg"><path d="m8.16436 7.57068v6.81582l5.45264-3.4079z" fill="#000"/><path d="m8.16434 11.0789h-7.01628" stroke="#000" stroke-linecap="round" stroke-width="1.50349"/><path d="m4.68959 13.3508v4.5439c0 1.2547 1.01718 2.2719 2.27194 2.2719h7.95177c1.2548 0 2.272-1.0172 2.272-2.2719v-13.63167c0-1.25476-1.0172-2.27194-2.272-2.27194h-7.95177c-1.25476 0-2.27194 1.01718-2.27194 2.27194v4.54388" stroke="#000" stroke-width="2.00465"/><rect fill="#000" height="3.00698" rx="1.00233" width="6.01396" x="8.16434" y="1.05554"/></svg>

<svg width="20" height="22" viewBox="0 0 20 22" fill="none" xmlns="http://www.w3.org/2000/svg">
<path d="M8.16436 7.57068L8.16436 14.3865L13.617 10.9786L8.16436 7.57068Z" fill="black"/>
<path d="M8.16434 11.0789L1.14806 11.0789" stroke="black" stroke-width="1.50349" stroke-linecap="round"/>
<path d="M4.68959 13.3508V17.8947C4.68959 19.1494 5.70677 20.1666 6.96153 20.1666H14.9133C16.1681 20.1666 17.1853 19.1494 17.1853 17.8947V4.26303C17.1853 3.00827 16.1681 1.99109 14.9133 1.99109H6.96153C5.70677 1.99109 4.68959 3.00827 4.68959 4.26303V8.80691" stroke="black" stroke-width="2.00465"/>
<rect x="8.16434" y="1.05554" width="6.01396" height="3.00698" rx="1.00233" fill="black"/>
</svg>
